X:1
T:Title
%%score { ( 1 3 ) | ( 2 4 ) }
L:1/8
Q:1/4=100
M:4/4
K:D
V:1 treble nm="Grand Piano"
V:3 treble 
V:2 bass 
V:4 bass 
V:1
 [FA][FA][FA][FA] [FB]2 F2 | G2 F2 G4 | BBBB c2 G2 | [FA]2 [=F^G]2 [^FA]4 | DEF[EG] [FA]2 [Fd]2 | %5
w: C.~Austin~Miles * * * * *|||||
 [Gc]2 [Gc]6 | [CE][DF][EG][FA] [GB]2 [Gc]2 | [FA]2 [FA]6 | DEFG [FA]2 [Fd]2 | e2 B6 | %10
w: |||||
 A2 A2 [EFA]2 [DFA]2 | [CEGA]6 z2 | [FA]3 [DF] [FA]2 [ad'g']2 | [gc'f']2 [fbe']2 [ead']2 z2 | %14
w: ||||
 [Fd]3 [Ac] [GB]2 [be'a']2 | [ad'g']2 [gc'f']2 [fbe']2 z2 | c3 d c2 G2 | G2 F2 G4 | %18
w: ||||
 B3 c [GB]2 [FA]2 | [FA]2 [=F^G]2 [^FA]4 | [FA]3 [DF] [FA]2 [d'g']2 | [c'f']2 [fbe']2 [ead']2 z2 | %22
w: ||||
 [Fd]3 [Ac] [GB]2 [be'a']2 | [ad'g']2 [gc'f']2 [fad']2 z2 | [^Ge]3 [Gd] c2 =c2 | c2 B2 A2 B2 | %26
w: ||||
 c f3 [Fd]4 | [gc'f']2 [fbe']2 [ead']2 [dgc']2 | [cfc']2 [Bea]2 [Adg]4 | [Ge]3 [Ec] d2- [Bd-]2 | %30
w: ||||
 [Ad-]2 [Gd-]2 [Fd-]2 [Gd-]2 | [Fd-]2 [Ed-]2 [Dd]2 z2 |] %32
w: ||
V:2
 [D,D][D,D][D,D][D,D] [D,D]2 [D,D]2 | [A,CE]2 [A,=C^D]2 [A,^CE]4 | %2
 [A,CG][A,CG][A,CG][A,CG] [A,EG]2[K:bass] [A,CE]2 | [D,D]2 [D,B,]2 [D,A,]4 | %4
 [D,F,][D,G,D][D,A,D][D,D] [D,D]2 [D,D]2 | [A,E]2 [A,E]6 | %6
 [A,,A,][A,,A,][A,,A,][A,,A,] [A,,A,]2 [A,,A,]2 | [D,A,]2 [D,A,]6 | %8
 [D,F,][D,G,D][D,A,D][D,A,D] [D,D]2 [D,=C]2 | [G,B,G]2 [^G,D=F]6 | %10
 [A,DF]2 [A,DF]2[K:bass] [A,,A,]2 [A,,A,]2 | [A,,A,]6 z2 | [D,D]3 [D,A,] [D,D]2[K:treble] [Fd]2 | %13
 [Ec]2 [DB]2 [CA]2 z2 | [D,A,]3 [F,D][K:treble] [G,D]2 [Ge]2 | [Fd]2 [Ec]2 [DB]2 z2 | %16
 [A,EG]3 [A,EG] [A,EG]2 [A,CE]2 | [A,CE]2 [A,=C^D]2 [A,^CE]4 | %18
 [A,EG]3 [A,EG][K:bass] [D,D]2 [D,A,]2 | [D,A,]2 [D,B,]2 [D,A,]4 | %20
 [D,D]3 [D,B,] [D,D]2[K:treble] [Fd]2 | [Ec]2 [DB]2 [CA]2 z2 | %22
 [D,A,]3 [F,D][K:treble] [G,D]2 [Ge]2 | [Fd]2 [Ec]2 [DB]2 z2 | %24
 [E,B,]3 [E,E][K:treble] [A,EG]2 [A,^DG]2 | [A,EG]2 [A,DG]2 [A,CG]2 [A,DG]2 | %26
 [A,EG] [A,CG]3 [D,D]4 | [Ec]2 [DB]2 [CA]2 [B,G]2 | [A,F]2[K:bass] [G,E]2 [F,D]4 | z4 A,2 z2 | z8 | %31
 z8 |] %32
V:3
 x8 | x8 | x8 | x8 | x8 | x8 | x8 | x8 | x8 | x8 | x8 | x8 | x8 | x8 | x8 | x8 | x8 | x8 | x8 | %19
 x8 | x8 | x8 | x8 | x8 | x8 | x8 | x8 | x8 | x8 | z4 F2 z2 | x8 | x8 |] %32
V:4
 x8 | x8 | x6[K:bass] x2 | x8 | x8 | x8 | x8 | x8 | x8 | x8 | x4[K:bass] x4 | x8 | %12
 x6[K:treble] x2 | x8 | x4[K:treble] x4 | x8 | x8 | x8 | x4[K:bass] x4 | x8 | x6[K:treble] x2 | %21
 x8 | x4[K:treble] x4 | x8 | x4[K:treble] x4 | x8 | x8 | x8 | x2[K:bass] x6 | %29
 [A,,A,]3 [A,,A,] D,2- [D,-D]2 | [D,-C]2 [D,-B,]2 [D,-A,]2 [D,-B,]2 | %31
 [D,-A,]2 [D,-G,]2 [D,-F,]2 D,2 |] %32

